src/images/icons/employee-case-hand.svg

<svg width="112" height="142" viewBox="0 0 112 142" fill="none" xmlns="http://www.w3.org/2000/svg">
<path d="M45.0947 121.065L46.3295 163.527L87.6884 161.797L85.6417 112.872C85.6417 112.872 94.8744 97.4353 97.8695 87.9864C99.7831 81.9492 101.831 78.0624 102.609 71.8116C103.169 67.3031 101.86 65.6384 102.979 61.2349C103.712 58.3494 107.034 57.11 105.94 54.3413C105.308 52.7432 103.355 51.9335 100.949 51.5716C97.5334 51.0576 95.213 52.5314 92.694 54.8954C89.2124 58.1626 90.5658 62.5125 88.3145 66.723C87.057 69.0746 85.5445 71.7131 85.5445 71.7131C85.5445 71.7131 84.2844 69.9171 84.0572 68.5258C83.5777 65.5893 83.3986 63.7754 84.2814 60.9339C86.6678 53.2522 87.5838 48.0426 88.8057 39.6228C89.8616 32.3468 91.077 28.1521 89.9175 20.8919C89.0636 15.5452 90.7447 8.4557 85.3312 8.3565C81.6962 8.28988 80.783 9.77097 79.0245 12.953C77.1225 16.3946 78.7229 19.7304 77.8437 23.563C77.2602 26.1066 76.2038 27.3276 75.6709 29.8822C75.1277 32.4865 75.7943 34.0947 75.1427 36.6741C74.4135 39.5607 72.7948 40.736 71.9112 43.5791C70.8903 46.8641 70.6512 52.2972 70.6512 52.2972C70.6512 52.2972 68.5314 40.4716 67.5273 29.4108C67.1796 25.5805 65.2997 23.4725 64.1468 19.8033C62.4889 14.527 63.2781 11.9872 61.4526 7.18908C60.3919 4.40116 57.6978 2.49613 54.7841 3.13506C52.6944 3.59333 51.3265 4.63373 50.8536 6.27821C50.3807 7.9227 51.5637 14.8177 51.9824 20.3122C52.3196 24.7371 52.0416 27.0369 52.9865 31.3728C53.4996 33.7269 54.2613 35.9486 54.362 38.3559L55.0179 54.0343C55.0179 54.0343 53.8424 46.3001 52.3237 41.4199C50.9711 37.0735 49.5803 34.7911 48.0757 30.495C46.2263 25.2145 46.7794 25.4042 44.8635 18.4437C44.0859 15.6188 41.3547 13.5739 39.0058 14.3561C36.657 15.1383 35.086 16.3967 34.8616 18.8622C34.4906 22.9396 35.5955 26.1402 36.4519 30.9813C37.0638 34.4398 37.3358 36.6632 37.9176 40.127C38.4646 43.3839 39.5758 44.88 39.8787 48.1687C40.0726 50.273 40.0166 51.4637 40.1049 53.575L40.5346 63.8472L34.2731 69.5251C34.2731 69.5251 25.9827 65.5392 21.2401 62.2173C15.3878 58.1181 7.26045 51.6996 4.1975 56.1603C2.16403 59.1218 3.68924 62.1554 6.18142 64.7428C14.957 73.8535 27.1453 80.3841 27.1453 80.3841C27.1453 80.3841 34.9776 105.782 41.9628 117.404C42.9898 119.113 45.0947 121.065 45.0947 121.065Z" stroke="#33386F"/>
<path d="M28.9962 72.6443C27.6945 74.4628 28.3525 75.2316 26.9221 76.2581C25.4917 77.2847 22.1715 75.6085 19.3584 73.6115C16.5454 71.6146 13.5039 69.6255 9.49112 65.9948C7.47959 64.1747 5.8634 61.9826 6.98346 59.59C7.83588 57.769 9.15564 57.6045 11.2732 57.9762C14.2643 58.5012 18.133 62.4562 23.0378 65.4281C26.2328 67.3639 31.9074 68.513 30.8725 70.3809C29.9618 72.0246 30.0899 71.1163 28.9962 72.6443Z" stroke="#33386F"/>
<path d="M41.0541 15.6942C39.3181 15.3737 37.7583 15.832 36.8213 17.4502C35.7247 19.3437 36.121 21.1042 36.4939 23.3491C36.8096 25.2506 37.7288 28.2155 38.2609 31.4571C38.8025 34.7559 38.5342 36.9113 39.2076 40.1812C39.6956 42.5512 40.0221 42.9514 40.7127 45.2782C41.5041 47.9444 41.4433 49.3766 41.6531 54.392C41.7738 57.2768 44.4225 56.3329 46.2013 55.6561C47.9801 54.9793 51.0943 53.2503 51.8319 51.1896C52.6364 48.9421 51.4917 44.4949 50.0978 39.7257C48.9134 35.6734 47.1736 33.0539 46.0596 28.9778C45.2476 26.007 44.9012 24.5764 44.1657 21.4492C43.4888 18.5713 43.7146 16.1854 41.0541 15.6942Z" stroke="#33386F"/>
<path d="M58.2759 5.35545C56.8117 4.08411 54.5795 4.21426 53.1174 5.57134C50.9066 7.62334 53.3018 15.4849 53.5022 21.6318C53.6057 24.8059 53.4524 25.5745 53.7991 28.7276C54.1392 31.8211 54.8836 33.2918 55.5526 36.3309C56.8481 42.2165 55.8255 42.9068 56.7312 50.7794C56.9943 53.0668 59.2682 54.09 61.8842 53.8653C64.095 53.6754 65.603 53.4706 67.3163 52.0554C70.7897 49.1864 65.6718 38.2083 64.8298 28.2662C64.5069 24.4539 62.7622 24.6764 61.8829 18.937C60.9684 12.9673 60.9571 7.6834 58.2759 5.35545Z" stroke="#33386F"/>
<path d="M101.997 58.7912C102.51 55.9337 102.638 54.7909 101.376 54.2238C100.113 53.6566 96.1787 53.3445 93.298 56.7149C90.3618 60.1502 91.3906 62.7893 89.7174 67.1997C88.4077 70.6519 88.2444 70.7016 87.4619 72.982C86.0586 77.0711 85.6824 77.6148 84.6818 80.5391C83.9575 82.6562 83.696 84.5332 84.9908 87.924C86.8855 92.886 87.7 94.4413 89.8233 93.7506C91.6441 93.1584 91.4862 92.4662 92.6826 90.0424C93.7927 87.7936 93.5043 88.3182 95.0161 84.0596C95.7763 81.9181 96.7565 79.6229 97.2563 77.406C98.0013 74.1021 97.9255 73.6022 98.5996 70.2831C99.6351 65.1845 101.079 63.9123 101.997 58.7912Z" stroke="#33386F"/>
<path d="M77.6313 111.405C82.815 108.631 85.3701 104.029 85.1061 97.7192C84.9206 93.2831 82.0672 90.7546 81.8816 86.3186C81.8816 86.3186 82.828 65.8586 80.9262 63.4797C79.0244 61.1008 77.3891 61.2017 75.068 59.2298C72.8198 57.3199 73.567 55.6609 70.8021 54.6324C67.6123 53.4459 65.7313 55.9384 62.1436 55.8374C59.4604 55.7618 57.1533 54.6019 54.5365 55.3129C51.481 56.1431 45.28 61.31 39.0616 68.1808C35.0089 72.6587 31.1052 78.5756 32.1408 84.0621C33.5843 91.7102 40.8507 110.948 45.1635 116.667C46.4225 118.337 49.914 119.419 52.438 119.313C58.2202 119.071 59.5229 116.315 65.0446 114.582C69.8814 113.064 72.4475 114.18 77.6313 111.405Z" stroke="#33386F"/>
<path d="M75.1484 41.4226C74.1497 44.6828 72.1731 51.4746 72.8903 53.4691C73.6075 55.4635 74.3206 56.4744 75.8399 57.9522C77.9477 60.0024 80.3683 61.9546 82.7197 60.1889C84.5946 58.781 87.3608 42.7393 88.4635 30.3605C88.7022 27.6803 88.0309 25.534 87.7443 22.8538C87.394 19.5772 88.0839 16.4448 86.3709 14.2327C85.2801 12.8241 84.7053 12.8747 83.0879 13.2281C80.9512 13.6951 80.5175 15.2544 79.62 17.4841C78.5443 20.1562 79.6192 22.1546 79.1259 25.0415C78.7241 27.3927 77.8581 28.4623 77.4847 30.8198C77.1507 32.9283 77.6143 34.2339 77.1668 36.3143C76.7262 38.3621 75.758 39.4324 75.1484 41.4226Z" stroke="#33386F"/>
</svg>

<svg xmlns="http://www.w3.org/2000/svg" width="112" height="142" fill="none"><path stroke="#33386F" d="M45.095 121.065l1.235 42.462 41.358-1.73-2.046-48.925s9.232-15.437 12.228-24.886c1.913-6.037 3.961-9.924 4.739-16.174.56-4.509-.749-6.174.37-10.577.733-2.886 4.055-4.125 2.961-6.894-.632-1.598-2.585-2.407-4.991-2.77-3.416-.513-5.736.96-8.255 3.324-3.482 3.268-2.128 7.617-4.38 11.828-1.257 2.352-2.77 4.99-2.77 4.99s-1.26-1.796-1.487-3.187c-.48-2.937-.658-4.75.224-7.592 2.387-7.682 3.303-12.891 4.525-21.311 1.056-7.276 2.271-11.47 1.112-18.731-.854-5.347.827-12.436-4.587-12.535-3.635-.067-4.548 1.414-6.306 4.596-1.903 3.442-.302 6.777-1.181 10.61-.584 2.544-1.64 3.765-2.173 6.32-.543 2.604.123 4.212-.528 6.791-.73 2.887-2.348 4.062-3.232 6.905-1.02 3.285-1.26 8.718-1.26 8.718s-2.12-11.825-3.124-22.886c-.347-3.83-2.227-5.939-3.38-9.608-1.658-5.276-.869-7.816-2.694-12.614-1.061-2.788-3.755-4.693-6.669-4.054-2.09.458-3.457 1.499-3.93 3.143-.473 1.645.71 8.54 1.128 14.034.338 4.425.06 6.725 1.005 11.06.513 2.355 1.274 4.577 1.375 6.984l.656 15.678S53.842 46.3 52.324 41.42c-1.353-4.346-2.744-6.629-4.248-10.925-1.85-5.28-1.297-5.09-3.212-12.051-.778-2.825-3.51-4.87-5.858-4.088-2.349.782-3.92 2.04-4.144 4.506-.371 4.078.733 7.278 1.59 12.12.612 3.458.884 5.681 1.466 9.145.547 3.257 1.658 4.753 1.96 8.042.195 2.104.139 3.295.227 5.406l.43 10.272-6.262 5.678s-8.29-3.986-13.033-7.308C15.388 58.118 7.26 51.7 4.198 56.16c-2.034 2.962-.509 5.995 1.983 8.583 8.776 9.11 20.964 15.641 20.964 15.641s7.833 25.398 14.818 37.02c1.027 1.709 3.132 3.661 3.132 3.661z"/><path stroke="#33386F" d="M28.996 72.644c-1.301 1.819-.643 2.588-2.074 3.614-1.43 1.027-4.75-.65-7.564-2.646-2.813-1.997-5.854-3.986-9.867-7.617-2.011-1.82-3.628-4.012-2.508-6.405.853-1.821 2.173-1.986 4.29-1.614 2.991.525 6.86 4.48 11.765 7.452 3.195 1.936 8.87 3.085 7.834 4.953-.91 1.644-.782.735-1.876 2.263z"/><path stroke="#33386F" d="M41.054 15.694c-1.736-.32-3.296.138-4.233 1.756-1.096 1.894-.7 3.654-.327 5.9.316 1.9 1.235 4.865 1.767 8.107.541 3.299.273 5.454.947 8.724.488 2.37.814 2.77 1.505 5.097.791 2.666.73 4.099.94 9.114.12 2.885 2.77 1.94 4.548 1.264 1.78-.677 4.893-2.406 5.63-4.466.805-2.248-.34-6.695-1.733-11.464-1.185-4.053-2.924-6.672-4.038-10.748-.812-2.971-1.159-4.402-1.894-7.529-.677-2.878-.451-5.264-3.112-5.755z"/><path stroke="#33386F" d="M58.276 5.355c-1.464-1.27-3.697-1.14-5.159.216-2.21 2.052.185 9.914.385 16.06.104 3.175-.05 3.944.297 7.097.34 3.093 1.085 4.564 1.754 7.603 1.295 5.886.273 6.576 1.178 14.448.263 2.288 2.537 3.311 5.153 3.086 2.211-.19 3.719-.394 5.432-1.81 3.474-2.869-1.644-13.847-2.486-23.789-.323-3.812-2.068-3.59-2.947-9.329-.915-5.97-.926-11.254-3.607-13.582z"/><path stroke="#33386F" d="M101.997 58.791c.513-2.857.641-4-.621-4.567-1.263-.567-5.197-.88-8.078 2.49-2.936 3.436-1.907 6.075-3.58 10.486-1.31 3.452-1.474 3.502-2.256 5.782-1.403 4.09-1.78 4.633-2.78 7.557-.725 2.117-.986 3.994.309 7.385 1.894 4.962 2.709 6.517 4.832 5.827 1.821-.593 1.663-1.285 2.86-3.709 1.11-2.248.821-1.724 2.333-5.982.76-2.142 1.74-4.437 2.24-6.654.745-3.304.67-3.804 1.344-7.123 1.035-5.099 2.479-6.37 3.397-11.492z"/><path stroke="#33386F" d="M77.631 111.405c5.184-2.774 7.74-7.376 7.475-13.686-.185-4.436-3.039-6.964-3.224-11.4 0 0 .946-20.46-.956-22.84-1.902-2.378-3.537-2.277-5.858-4.25-2.248-1.91-1.501-3.568-4.266-4.597-3.19-1.186-5.07 1.306-8.658 1.205-2.684-.075-4.99-1.235-7.608-.524-3.055.83-9.256 5.997-15.474 12.868-4.053 4.478-7.957 10.395-6.921 15.881 1.443 7.648 8.71 26.886 13.023 32.605 1.258 1.67 4.75 2.752 7.274 2.646 5.782-.242 7.085-2.998 12.607-4.731 4.836-1.518 7.403-.402 12.586-3.177z"/><path stroke="#33386F" d="M75.148 41.423c-.998 3.26-2.975 10.052-2.258 12.046.718 1.995 1.43 3.005 2.95 4.483 2.108 2.05 4.528 4.003 6.88 2.237 1.875-1.408 4.64-17.45 5.743-29.829.24-2.68-.432-4.826-.719-7.506-.35-3.277.34-6.41-1.373-8.621-1.09-1.409-1.666-1.358-3.283-1.005-2.137.467-2.57 2.026-3.468 4.256-1.076 2.672 0 4.67-.494 7.557-.402 2.352-1.268 3.421-1.641 5.779-.334 2.108.13 3.414-.318 5.494-.44 2.048-1.409 3.118-2.019 5.109z"/></svg>
